X:1
T:Gaude Maria virgo
T:Heinrich Isaac
T:Source : Bicinia---Tomus II---Wittemberg---G.Rhau---1545. Editor : André Vierendeels (23/06/17).
T:Notes : Original  clefs : C4, F4 Original note values have been halved Editorial accidentals above the staff Square brackets indicate ligatures Dotted bracket indicates black notes Square brackets indicate ligatures
T:Gaude Maria virgo
T:©
T:©
C:Heinrich Isaac
Z:©
%%score [ 1 2 ]
L:1/8
Q:1/4=120
M:2/2
K:F
V:1 treble-8 nm="Tenor" snm="T"
V:2 bass nm="Bass" snm="B"
V:1
 z8 | z4 G4 | G4 F4 | D4 F4 | C4 z2 C2 | D2 E2 F2 G2 | A2 B2 c2 A2- | AG G4 F2 | G4 z4 | G4 B4 | %10
w: |Gau-|||de, gau-||||de|Ma- *|
 F4 G4 | z2 B4 A2 | B4 A4 | G4 A2 G2 | A2 B2 c2 G2- | GF F4 E2 | F4 z2 F2 | F3 G A2 B2- | %18
w: ri- a,|vir- *|||||go, cun-|ctas _ _ hae-|
 BA G4 F2 | G4 z2 G2- | G2 F2 G3 A | B2 c4 B2- | B2 A2 B2 c2- | c2 B4 A2 | B4 z4 | F4 G4 | F4 B4 | %27
w: * * re- *|ses so-|||||la|in _|te- re-|
 A4 B2 c2- | cBAG A2 B2- | BA G4 F2 | G8 |] %31
w: mi- * *|||sti.|
V:2
 C,4 C,4 | B,,4 G,,4 | z2 G,,2 A,,2 B,,2- | B,,A,, G,,2 F,,4 | z2 F,,2 G,,2 A,,2 | %5
w: Gau- *|* de,|[Gau- * *|* * * de,|Gau- * *|
 B,,2 C,2 D,2 E,2 | F,2 G,2 C,2 D,2- | D,B,, C,2 A,,4 | G,,8 | z2 G,,3 A,,B,,C, | %10
w: |||de]|Ma- * * *|
 D,E,F,D, _E,3 D, | B,,2 D,2 C,4 | z2 B,,C, D,E, F,2- | F,E,E,D,/E,/ F,2 E,2 | F,2 D,2 C,2 B,,A,, | %15
w: |ri- * a,|vir- * * * *|||
 B,,A,,G,,F,, G,,4 | z2 F,,2 F,,3 G,, | A,,2 B,,2 C,2 D,2 | B,,2 C,2 A,,4 | z2 G,,3 A,, B,,2 | %20
w: * * * * go,|cun- ctas _|_ _ _ _|hae- re- des,|so- * *|
 C,2 D,2 E,2 F,2 | G,2 F,3 E, D,2 | C,4 B,,2 A,,2 | B,,4 C,4 | z2 G,,2 G,,A,,B,,C, | %25
w: |||la, _|in ter- * * *|
 D,E, F,3 E,E,D,/E,/ |"^#" F,2 B,,3 C,D,E, | F,G,A,F, G,F,E,D, | C,2 F,E, D,C, D,2 | %29
w: ||||
 B,,2 C,2 A,,4 | G,,8 |] %31
w: re mi- *|sti|

